images/customers-logo-6.svg

<svg width="89" height="45" viewBox="0 0 89 45" fill="none" xmlns="http://www.w3.org/2000/svg">
<path d="M44.7404 20.6885C44.3224 20.0973 44.1225 19.3987 44.1699 18.6954V15.8056C44.1699 14.9198 44.359 14.2466 44.7372 13.7861C45.1154 13.3255 45.7649 13.0962 46.6858 13.0982C47.5512 13.0982 48.1654 13.2941 48.5287 13.6861C48.9249 14.1862 49.1176 14.7978 49.0735 15.4147V16.0937H47.5255V15.4058C47.531 15.1807 47.516 14.9555 47.4807 14.7326C47.4584 14.5803 47.3804 14.4393 47.2595 14.3328C47.1006 14.2181 46.9003 14.1624 46.6987 14.177C46.4866 14.1625 46.2762 14.2212 46.1089 14.3417C45.9741 14.4596 45.8842 14.6142 45.8525 14.7826C45.8081 15.0185 45.7878 15.2576 45.7916 15.497V19.0041C45.7672 19.3424 45.8355 19.6809 45.9904 19.9889C46.0673 20.093 46.1743 20.1756 46.2993 20.2275C46.4243 20.2794 46.5625 20.2985 46.6987 20.2828C46.897 20.2978 47.0937 20.2408 47.2467 20.1241C47.3728 20.0093 47.454 19.8594 47.4775 19.6978C47.5136 19.4652 47.5297 19.2302 47.5255 18.9952V18.2838H49.0735V18.9335C49.117 19.5765 48.9289 20.2148 48.5383 20.7502C48.1825 21.1794 47.5768 21.394 46.6858 21.394C45.7949 21.394 45.1218 21.1647 44.7404 20.6885Z" fill="#AFB1B8"/>
<path d="M51.1856 20.7179C50.7946 20.2681 50.5991 19.6126 50.5991 18.7454V15.7057C50.5991 14.8473 50.7946 14.1976 51.1856 13.7567C51.5766 13.3157 52.2304 13.0962 53.147 13.0982C54.0572 13.0982 54.7078 13.3177 55.0988 13.7567C55.4898 14.1976 55.6885 14.8473 55.6885 15.7057V18.7454C55.6885 19.6038 55.4898 20.2623 55.0924 20.715C54.695 21.1677 54.0476 21.394 53.147 21.394C52.2464 21.394 51.5798 21.1647 51.1856 20.7179ZM53.8681 19.9889C54.0081 19.7071 54.0719 19.3985 54.054 19.0893V15.3676C54.072 15.0644 54.0093 14.7617 53.8713 14.4857C53.7928 14.3793 53.6832 14.2954 53.5551 14.2434C53.4271 14.1914 53.2856 14.1735 53.147 14.1917C53.0079 14.174 52.8662 14.1921 52.7377 14.244C52.6093 14.2959 52.4991 14.3796 52.4195 14.4857C52.2786 14.7609 52.2147 15.064 52.2336 15.3676V19.1069C52.2141 19.4162 52.278 19.7252 52.4195 20.0065C52.5097 20.1013 52.6211 20.1773 52.746 20.2294C52.8709 20.2815 53.0066 20.3084 53.1438 20.3084C53.281 20.3084 53.4167 20.2815 53.5416 20.2294C53.6665 20.1773 53.7779 20.1013 53.8681 20.0065V19.9889Z" fill="#AFB1B8"/>
<path d="M57.5505 13.1868H59.2171L60.4702 18.795L61.7522 13.1868H63.3739L63.5374 21.2817H62.3387L62.2105 15.6558L60.9734 21.2817H60.0119L58.7299 15.6352L58.6114 21.2817H57.3999L57.5505 13.1868Z" fill="#AFB1B8"/>
<path d="M65.4061 13.1868H68.0021C69.4977 13.1868 70.2455 13.953 70.2455 15.4853C70.2455 16.9531 69.4581 17.6859 67.8835 17.684H66.9989V21.2817H65.3965L65.4061 13.1868ZM67.6239 16.6464C67.7822 16.6648 67.943 16.6515 68.0952 16.6073C68.2474 16.5632 68.3873 16.4893 68.5052 16.3907C68.689 16.1173 68.77 15.7962 68.736 15.4765C68.7444 15.2296 68.7185 14.9827 68.6591 14.7417C68.6362 14.6612 68.5961 14.5857 68.5411 14.5196C68.486 14.4535 68.4172 14.3981 68.3386 14.3566C68.1161 14.2588 67.8702 14.2143 67.6239 14.2273H67.0021V16.6464H67.6239Z" fill="#AFB1B8"/>
<path d="M72.5559 13.1868H74.277L76.0428 21.2817H74.5494L74.2 19.4153H72.6649L72.3059 21.2817H70.79L72.5559 13.1868ZM74.027 18.4776L73.4277 15.0797L72.8283 18.4776H74.027Z" fill="#AFB1B8"/>
<path d="M77.469 13.1868H78.5908L80.7381 17.8045V13.1868H82.0681V21.2817H81.0009L78.8407 16.4612V21.2817H77.4658L77.469 13.1868Z" fill="#AFB1B8"/>
<path d="M85.1836 18.1954L83.3984 13.1985H84.9015L85.9912 16.4083L87.0136 13.1985H88.4846L86.7219 18.1954V21.2817H85.1836V18.1954Z" fill="#AFB1B8"/>
<path d="M47.2146 24.8213V25.2446H45.907V28.5339H45.3589V25.2446H44.0449V24.8213H47.2146Z" fill="#AFB1B8"/>
<path d="M51.3141 28.5342H50.891C50.8481 28.5366 50.8057 28.524 50.7724 28.4989C50.7404 28.4774 50.7159 28.4477 50.7019 28.4137L50.3238 27.5318H48.5097L48.1316 28.4137C48.1208 28.4505 48.1011 28.4847 48.0739 28.5136C48.0403 28.5382 47.9982 28.5508 47.9553 28.5489H47.5322L49.1347 24.8362H49.6924L51.3141 28.5342ZM48.6604 27.1555H50.1731L49.5321 25.6446C49.4848 25.5303 49.4452 25.4135 49.4135 25.2948C49.3911 25.3653 49.3719 25.4329 49.3526 25.4917L49.295 25.6475L48.6604 27.1555Z" fill="#AFB1B8"/>
<path d="M54.0766 28.1694C54.177 28.1743 54.2775 28.1743 54.3779 28.1694C54.4645 28.1612 54.5503 28.1465 54.6343 28.1253C54.7128 28.1077 54.7899 28.0851 54.865 28.0577C54.9356 28.0313 55.0061 27.9989 55.0798 27.9666V27.1317H54.4388C54.4229 27.1325 54.4071 27.1303 54.3922 27.1253C54.3773 27.1202 54.3637 27.1124 54.3523 27.1023C54.3417 27.0939 54.3334 27.0835 54.3279 27.0718C54.3223 27.0601 54.3197 27.0474 54.3202 27.0347V26.7495H55.5637V28.1724C55.4622 28.239 55.355 28.298 55.2432 28.3488C55.129 28.4005 55.0099 28.4428 54.8875 28.4752C54.7564 28.5105 54.6224 28.5361 54.4869 28.5516C54.3315 28.5674 54.1753 28.5753 54.0189 28.5751C53.7425 28.5773 53.4683 28.5303 53.2113 28.437C52.9714 28.3485 52.7534 28.2165 52.5703 28.0489C52.3919 27.8796 52.2514 27.6799 52.1569 27.461C52.0559 27.2149 52.0059 26.9537 52.0095 26.6907C52.0061 26.4262 52.055 26.1632 52.1537 25.9146C52.2459 25.6946 52.3866 25.4944 52.5671 25.3267C52.75 25.1597 52.9681 25.0286 53.2081 24.9416C53.4825 24.8469 53.7738 24.8 54.067 24.8034C54.2162 24.8032 54.3652 24.814 54.5125 24.8357C54.6428 24.8552 54.7706 24.8867 54.8939 24.9298C55.006 24.9684 55.1134 25.0177 55.2144 25.0768C55.3126 25.1348 55.4058 25.1997 55.4932 25.2708L55.3394 25.5001C55.3273 25.5211 55.3094 25.5387 55.2874 25.5511C55.2654 25.5635 55.2402 25.5703 55.2144 25.5707C55.1789 25.5696 55.1445 25.5594 55.115 25.5413C55.067 25.5178 55.0157 25.4884 54.958 25.4531C54.8898 25.4139 54.818 25.3804 54.7433 25.3531C54.6477 25.318 54.5491 25.2905 54.4484 25.2708C54.3142 25.2481 54.1779 25.2373 54.0414 25.2385C53.8299 25.2363 53.62 25.2713 53.4228 25.3414C53.2445 25.407 53.0838 25.5073 52.9517 25.6354C52.8189 25.7688 52.7174 25.9259 52.6536 26.0969C52.5105 26.499 52.5105 26.9324 52.6536 27.3345C52.7238 27.5091 52.833 27.6684 52.9741 27.802C53.1056 27.9293 53.2651 28.0295 53.4421 28.0959C53.6458 28.1601 53.8619 28.1851 54.0766 28.1694Z" fill="#AFB1B8"/>
<path d="M59.1851 28.1106H60.9351V28.5339H58.6499V24.8213H59.198L59.1851 28.1106Z" fill="#AFB1B8"/>
<path d="M62.7556 28.5339H62.2075V24.8213H62.7556V28.5339Z" fill="#AFB1B8"/>
<path d="M64.7939 24.8387C64.8265 24.8558 64.8548 24.8788 64.8772 24.9063L67.22 27.705C67.2168 27.6609 67.2168 27.6167 67.22 27.5727C67.22 27.5315 67.22 27.4904 67.22 27.4522V24.8064H67.6975V28.534H67.4219C67.3811 28.537 67.3401 28.5299 67.3033 28.5134C67.27 28.4949 67.2407 28.471 67.2168 28.4428L64.8772 25.6472C64.8772 25.6913 64.8772 25.7324 64.8772 25.7736C64.8772 25.8147 64.8772 25.8529 64.8772 25.8882V28.534H64.4189V24.8211H64.7042C64.7351 24.8212 64.7657 24.8272 64.7939 24.8387Z" fill="#AFB1B8"/>
<path d="M71.7323 24.8213V25.2299H69.7901V26.4557H71.3637V26.8496H69.7901V28.1165H71.7323V28.5251H69.2261V24.8213H71.7323Z" fill="#AFB1B8"/>
<path d="M14.3035 1.89306L38.6385 8.23072V30.439L14.3035 24.1042V1.89306ZM12.7427 0V25.1831L40.196 32.335V7.15485L12.7427 0Z" fill="#AFB1B8"/>
<path d="M27.4565 44.0251L0 36.8674V11.6873L27.4565 18.8421V44.0251Z" fill="#AFB1B8"/>
<path d="M13.1978 1.60791L37.2155 7.86614L27.0014 17.2373L2.98057 10.9761L13.1978 1.60791ZM12.7427 0L0 11.6875L27.4565 18.8423L40.196 7.15478L12.7427 0Z" fill="#AFB1B8"/>
<path d="M29.0015 42.6084L40.1962 32.338L29.0015 29.4192V42.6084Z" fill="#AFB1B8"/>
</svg>

<svg width="89" height="45" fill="none" xmlns="http://www.w3.org/2000/svg">
  <path d="M44.7 20.7a3 3 0 01-.5-2v-2.9c0-.9.2-1.6.5-2 .4-.5 1-.7 2-.7.9 0 1.5.2 1.8.6.4.5.6 1.1.6 1.7v.7h-1.6v-.7-.7l-.2-.4a.9.9 0 00-.6-.1 1 1 0 00-.6.1l-.2.5-.1.7V19c0 .3 0 .7.2 1l.3.2c.1 0 .3.1.4 0h.5c.2-.2.3-.3.3-.5v-1.4h1.6v.6c0 .7-.2 1.3-.6 1.9-.3.4-1 .6-1.8.6-1 0-1.6-.2-2-.7zM51.2 20.7c-.4-.4-.6-1-.6-2v-3c0-.9.2-1.5.6-2 .4-.4 1-.6 2-.6.9 0 1.5.2 1.9.7.4.4.6 1 .6 2v3c0 .8-.2 1.5-.6 2-.4.4-1 .6-2 .6-.9 0-1.5-.2-2-.7zm2.7-.7l.2-1v-3.6c0-.3 0-.6-.2-1l-.3-.2H53h-.4l-.3.3-.2.9V19c0 .3 0 .6.2 1l.3.1A1 1 0 0054 20zM57.6 13.2h1.6l1.3 5.6 1.3-5.6h1.6l.1 8h-1.2v-5.5L61 21.3h-1l-1.3-5.7v5.7h-1.3l.2-8.1zM65.4 13.2H68c1.5 0 2.2.8 2.2 2.3 0 1.5-.7 2.2-2.3 2.2H67v3.6h-1.6v-8.1zm2.2 3.4a1.2 1.2 0 001-.2c0-.3.2-.6.1-1v-.7l-.2-.2-.2-.1-.7-.2H67v2.4h.6zM72.6 13.2h1.7l1.7 8h-1.5l-.3-1.8h-1.5l-.4 1.9h-1.5l1.8-8.1zm1.4 5.3l-.6-3.4-.6 3.4H74zM77.5 13.2h1l2.2 4.6v-4.6h1.4v8H81l-2.2-4.7v4.8h-1.3v-8.1zM85.2 18.2l-1.8-5h1.5l1 3.2 1.1-3.2h1.5l-1.8 5v3h-1.5v-3zM47.2 24.8v.4H46v3.3h-.5v-3.3H44v-.4h3.2zM51.3 28.5H51h-.1-.1l-.4-1h-1.8l-.4 1h-.6l1.6-3.7h.6l1.6 3.7zm-2.6-1.3h1.5l-.7-1.6v-.3l-.1.2-.1.1-.6 1.6zM54 28.2h.4a1.7 1.7 0 00.5-.1l.2-.1V27h-.7v-.4h1.2v1.5a2.4 2.4 0 01-1.1.4H54c-.3 0-.5 0-.8-.2a1.8 1.8 0 01-1.2-1.7c0-.3 0-.5.2-.8 0-.2.2-.4.4-.6l.6-.4a2.5 2.5 0 011.3 0 2.1 2.1 0 01.7.2l.3.2-.2.2H55 55l-.3-.1a2 2 0 00-1.3 0l-.4.2c-.2.2-.3.3-.3.5-.2.4-.2.8 0 1.2 0 .2.1.4.3.5l.4.3h.7zM59.2 28.1h1.7v.4h-2.3v-3.7h.6v3.3zM62.8 28.5h-.6v-3.7h.6v3.7zM64.8 24.8v.1l2.4 2.8v-.1V24.8h.5v3.7h-.3-.1l-2.4-2.9V28.5h-.5v-3.7h.3zM71.7 24.8v.4h-2v1.3h1.7v.3h-1.6v1.3h2v.4h-2.6v-3.7h2.5zM14.3 1.9l24.3 6.3v22.2l-24.3-6.3V1.9zM12.7 0v25.2l27.5 7.1V7.2L12.7 0z" fill="#AFB1B8"/>
  <path d="M27.5 44L0 37V11.7l27.5 7.1V44z" fill="#AFB1B8"/>
  <path d="M13.2 1.6l24 6.3L27 17.2 3 11l10.2-9.4zM12.7 0L0 11.7l27.5 7.1L40.2 7.2 12.7 0zM29 42.6l11.2-10.3L29 29.4v13.2z" fill="#AFB1B8"/>
</svg>
